mobile/assets/icons/svgs/custom/pharmacy-dark.svg

<svg fill="none" height="500" viewBox="0 0 500 500" width="500" xmlns="http://www.w3.org/2000/svg"><path d="m144.5 92.58h138.64c.53 0 1.039.2107 1.414.5858s.586.8838.586 1.4142v40.79h-142.64v-40.79c0-.5304.211-1.0391.586-1.4142s.884-.5858 1.414-.5858z" fill="#daa900"/><g fill="#000"><path d="m171 142.5c-1.891 0-3.704-.751-5.042-2.088-1.337-1.337-2.088-3.151-2.088-5.042v-14.27c0-1.891.751-3.705 2.088-5.042 1.338-1.337 3.151-2.088 5.042-2.088s3.705.751 5.042 2.088 2.088 3.151 2.088 5.042v14.27c0 1.891-.751 3.705-2.088 5.042s-3.151 2.088-5.042 2.088z"/><path d="m199.56 142.5c-1.891 0-3.704-.751-5.041-2.088-1.338-1.337-2.089-3.151-2.089-5.042v-14.27c0-.936.185-1.863.543-2.729.358-.865.883-1.651 1.546-2.313.662-.662 1.448-1.187 2.313-1.545.865-.359 1.792-.543 2.728-.543.937 0 1.864.184 2.729.543.865.358 1.651.883 2.313 1.545s1.187 1.448 1.545 2.313c.359.866.543 1.793.543 2.729v14.27c0 1.891-.751 3.705-2.088 5.042s-3.151 2.088-5.042 2.088z"/><path d="m228.09 142.5c-1.891 0-3.704-.751-5.041-2.088-1.338-1.337-2.089-3.151-2.089-5.042v-14.27c0-1.891.751-3.705 2.089-5.042 1.337-1.337 3.15-2.088 5.041-2.088s3.705.751 5.042 2.088 2.088 3.151 2.088 5.042v14.27c0 1.891-.751 3.705-2.088 5.042s-3.151 2.088-5.042 2.088z"/><path d="m256.62 142.5c-.937.001-1.865-.182-2.731-.54-.867-.358-1.654-.883-2.317-1.545s-1.189-1.448-1.548-2.314-.544-1.794-.544-2.731v-14.27c.069-1.846.851-3.594 2.182-4.875 1.33-1.282 3.106-1.998 4.953-1.998 1.848 0 3.623.716 4.954 1.998 1.33 1.281 2.112 3.029 2.181 4.875v14.27c0 1.891-.751 3.705-2.088 5.042s-3.151 2.088-5.042 2.088z"/></g><path d="m121.1 228.09h185.43v114.11h-185.43z" fill="#daa900"/><path d="m270.88 86.48h-114.11c-5.399.0053-10.576 2.1517-14.394 5.9685-3.819 3.8169-5.968 8.9925-5.976 14.3915v28.53c.003 1.617.646 3.167 1.789 4.31 1.144 1.144 2.694 1.787 4.311 1.79h142.65c1.615-.005 3.163-.65 4.304-1.793s1.783-2.692 1.786-4.307v-28.53c-.005-5.398-2.152-10.5737-5.969-14.3908s-8.993-5.9639-14.391-5.9692zm8.17 42.79h-130.44v-22.43c0-2.165.859-4.242 2.389-5.774 1.53-1.5314 3.606-2.3933 5.771-2.396h114.11c2.165.0053 4.24.8678 5.771 2.399 1.531 1.531 2.394 3.606 2.399 5.771z" fill="#fff"/><path d="m295.35 167.12-18.35-7.34v-24.41c0-1.618-.643-3.169-1.787-4.313s-2.695-1.787-4.313-1.787h-114.13c-1.618 0-3.169.643-4.313 1.787s-1.787 2.695-1.787 4.313v24.41l-18.38 7.34c-5.114 2.024-9.5 5.543-12.584 10.097-3.084 4.555-4.724 9.933-4.706 15.433v192.35c.008 7.288 2.907 14.276 8.06 19.43 5.154 5.153 12.142 8.052 19.43 8.06h142.66c7.287-.011 14.274-2.91 19.427-8.063s8.052-12.139 8.063-19.427v-192.35c.017-5.5-1.624-10.877-4.708-15.431s-7.469-8.073-12.582-10.099zm5.09 217.88c-.005 4.054-1.618 7.94-4.484 10.806-2.867 2.866-6.753 4.479-10.806 4.484h-142.65c-4.054-.005-7.94-1.618-10.806-4.484s-4.479-6.752-4.484-10.806v-192.35c-.013-3.059.897-6.051 2.612-8.584 1.714-2.534 4.153-4.491 6.998-5.616l22.18-8.89c1.134-.449 2.106-1.229 2.789-2.239.683-1.009 1.046-2.202 1.041-3.421v-22.43h101.95v22.43c-.004 1.219.36 2.411 1.043 3.42.683 1.01 1.654 1.79 2.787 2.24l22.22 8.89c2.845 1.125 5.284 3.082 6.998 5.616 1.715 2.533 2.625 5.525 2.612 8.584z" fill="#fff"/><path d="m313.67 413.52c-14.105-.002-27.893-4.187-39.621-12.024-11.727-7.838-20.867-18.978-26.263-32.01-5.397-13.032-6.808-27.372-4.054-41.206 2.753-13.834 9.546-26.541 19.521-36.514 9.974-9.974 22.682-16.765 36.517-19.516 13.834-2.751 28.174-1.338 41.205 4.06 13.032 5.398 24.17 14.539 32.006 26.268 7.836 11.728 12.019 25.517 12.019 39.622-.024 18.91-7.547 37.038-20.919 50.408s-31.501 20.891-50.411 20.912zm0-128.38c-11.285 0-22.317 3.347-31.701 9.616-9.383 6.27-16.697 15.182-21.016 25.608-4.318 10.426-5.448 21.899-3.247 32.968 2.202 11.068 7.636 21.236 15.616 29.216s18.147 13.414 29.216 15.616c11.069 2.201 22.541 1.071 32.968-3.247 10.426-4.319 19.338-11.633 25.608-21.016 6.269-9.384 9.616-20.416 9.616-31.701-.016-15.128-6.033-29.633-16.73-40.33-10.698-10.697-25.202-16.714-40.33-16.73z" fill="#fff"/><path d="m226 300.46-13.32 13.32c-1.738 1.798-3.817 3.232-6.115 4.218-2.299.986-4.77 1.505-7.271 1.526s-4.98-.456-7.295-1.403c-2.314-.948-4.417-2.346-6.185-4.115-1.769-1.768-3.167-3.871-4.115-6.185-.947-2.315-1.424-4.795-1.403-7.295.021-2.501.54-4.973 1.526-7.271s2.42-4.377 4.218-6.115l13.32-13.32z" fill="#fff"/><path d="m226 300.46 13.32-13.32c3.534-3.533 5.52-8.325 5.521-13.321.001-4.997-1.983-9.79-5.516-13.324-1.749-1.75-3.826-3.138-6.112-4.085-2.285-.948-4.735-1.435-7.209-1.436-4.997-.001-9.79 1.983-13.324 5.516l-13.32 13.33z" fill="#000"/><path d="m313.67 401.32c32.651 0 59.12-26.469 59.12-59.12s-26.469-59.12-59.12-59.12-59.12 26.469-59.12 59.12 26.469 59.12 59.12 59.12z" fill="#daa900"/><path d="m347.9 330.79v22.82h-22.82v22.82h-22.81v-22.82h-22.82v-22.82h22.82v-22.81h22.81v22.81z" fill="#fff"/></svg>

<svg width="500" height="500" viewBox="0 0 500 500" fill="none" xmlns="http://www.w3.org/2000/svg">
<path d="M144.5 92.58H283.14C283.67 92.58 284.179 92.7907 284.554 93.1658C284.929 93.5409 285.14 94.0496 285.14 94.58V135.37H142.5V94.58C142.5 94.0496 142.711 93.5409 143.086 93.1658C143.461 92.7907 143.97 92.58 144.5 92.58Z" fill="#DAA900"/>
<path d="M171 142.5C169.109 142.5 167.296 141.749 165.958 140.412C164.621 139.075 163.87 137.261 163.87 135.37V121.1C163.87 119.209 164.621 117.395 165.958 116.058C167.296 114.721 169.109 113.97 171 113.97C172.891 113.97 174.705 114.721 176.042 116.058C177.379 117.395 178.13 119.209 178.13 121.1V135.37C178.13 137.261 177.379 139.075 176.042 140.412C174.705 141.749 172.891 142.5 171 142.5Z" fill="black"/>
<path d="M199.56 142.5C197.669 142.5 195.856 141.749 194.519 140.412C193.181 139.075 192.43 137.261 192.43 135.37V121.1C192.43 120.164 192.615 119.237 192.973 118.371C193.331 117.506 193.856 116.72 194.519 116.058C195.181 115.396 195.967 114.871 196.832 114.513C197.697 114.154 198.624 113.97 199.56 113.97C200.497 113.97 201.424 114.154 202.289 114.513C203.154 114.871 203.94 115.396 204.602 116.058C205.264 116.72 205.789 117.506 206.147 118.371C206.506 119.237 206.69 120.164 206.69 121.1V135.37C206.69 137.261 205.939 139.075 204.602 140.412C203.265 141.749 201.451 142.5 199.56 142.5Z" fill="black"/>
<path d="M228.09 142.5C226.199 142.5 224.386 141.749 223.049 140.412C221.711 139.075 220.96 137.261 220.96 135.37V121.1C220.96 119.209 221.711 117.395 223.049 116.058C224.386 114.721 226.199 113.97 228.09 113.97C229.981 113.97 231.795 114.721 233.132 116.058C234.469 117.395 235.22 119.209 235.22 121.1V135.37C235.22 137.261 234.469 139.075 233.132 140.412C231.795 141.749 229.981 142.5 228.09 142.5Z" fill="black"/>
<path d="M256.62 142.5C255.683 142.501 254.755 142.318 253.889 141.96C253.022 141.602 252.235 141.077 251.572 140.415C250.909 139.753 250.383 138.967 250.024 138.101C249.665 137.235 249.48 136.307 249.48 135.37V121.1C249.549 119.254 250.331 117.506 251.662 116.225C252.992 114.943 254.768 114.227 256.615 114.227C258.463 114.227 260.238 114.943 261.569 116.225C262.899 117.506 263.681 119.254 263.75 121.1V135.37C263.75 137.261 262.999 139.075 261.662 140.412C260.325 141.749 258.511 142.5 256.62 142.5Z" fill="black"/>
<path d="M121.1 228.09H306.53V342.2H121.1V228.09Z" fill="#DAA900"/>
<path d="M270.88 86.48H156.77C151.371 86.4853 146.194 88.6317 142.376 92.4485C138.557 96.2654 136.408 101.441 136.4 106.84V135.37C136.403 136.987 137.046 138.537 138.189 139.68C139.333 140.824 140.883 141.467 142.5 141.47H285.15C286.765 141.465 288.313 140.82 289.454 139.677C290.595 138.534 291.237 136.985 291.24 135.37V106.84C291.235 101.442 289.088 96.2663 285.271 92.4492C281.454 88.6321 276.278 86.4853 270.88 86.48ZM279.05 129.27H148.61V106.84C148.61 104.675 149.469 102.598 150.999 101.066C152.529 99.5346 154.605 98.6727 156.77 98.67H270.88C273.045 98.6753 275.12 99.5378 276.651 101.069C278.182 102.6 279.045 104.675 279.05 106.84V129.27Z" fill="white"/>
<path d="M295.35 167.12L277 159.78V135.37C277 133.752 276.357 132.201 275.213 131.057C274.069 129.913 272.518 129.27 270.9 129.27H156.77C155.152 129.27 153.601 129.913 152.457 131.057C151.313 132.201 150.67 133.752 150.67 135.37V159.78L132.29 167.12C127.176 169.144 122.79 172.663 119.706 177.217C116.622 181.772 114.982 187.15 115 192.65V385C115.008 392.288 117.907 399.276 123.06 404.43C128.214 409.583 135.202 412.482 142.49 412.49H285.15C292.437 412.479 299.424 409.58 304.577 404.427C309.73 399.274 312.629 392.288 312.64 385V192.65C312.657 187.15 311.016 181.773 307.932 177.219C304.848 172.665 300.463 169.146 295.35 167.12ZM300.44 385C300.435 389.054 298.822 392.94 295.956 395.806C293.089 398.672 289.203 400.285 285.15 400.29H142.5C138.446 400.285 134.56 398.672 131.694 395.806C128.828 392.94 127.215 389.054 127.21 385V192.65C127.197 189.591 128.107 186.599 129.822 184.066C131.536 181.532 133.975 179.575 136.82 178.45L159 169.56C160.134 169.111 161.106 168.331 161.789 167.321C162.472 166.312 162.835 165.119 162.83 163.9V141.47H264.78V163.9C264.776 165.119 265.14 166.311 265.823 167.32C266.506 168.33 267.477 169.11 268.61 169.56L290.83 178.45C293.675 179.575 296.114 181.532 297.828 184.066C299.543 186.599 300.453 189.591 300.44 192.65V385Z" fill="white"/>
<path d="M313.67 413.52C299.565 413.518 285.777 409.333 274.049 401.496C262.322 393.658 253.182 382.518 247.786 369.486C242.389 356.454 240.978 342.114 243.732 328.28C246.485 314.446 253.278 301.739 263.253 291.766C273.227 281.792 285.935 275.001 299.77 272.25C313.604 269.499 327.944 270.912 340.975 276.31C354.007 281.708 365.145 290.849 372.981 302.578C380.817 314.306 385 328.095 385 342.2C384.976 361.11 377.453 379.238 364.081 392.608C350.709 405.978 332.58 413.499 313.67 413.52ZM313.67 285.14C302.385 285.14 291.353 288.487 281.969 294.756C272.586 301.026 265.272 309.938 260.953 320.364C256.635 330.79 255.505 342.263 257.706 353.332C259.908 364.4 265.342 374.568 273.322 382.548C281.302 390.528 291.469 395.962 302.538 398.164C313.607 400.365 325.079 399.235 335.506 394.917C345.932 390.598 354.844 383.284 361.114 373.901C367.383 364.517 370.73 353.485 370.73 342.2C370.714 327.072 364.697 312.567 354 301.87C343.302 291.173 328.798 285.156 313.67 285.14Z" fill="white"/>
<path d="M226 300.46L212.68 313.78C210.942 315.578 208.863 317.012 206.565 317.998C204.266 318.984 201.795 319.503 199.294 319.524C196.793 319.545 194.314 319.068 191.999 318.121C189.685 317.173 187.582 315.775 185.814 314.006C184.045 312.238 182.647 310.135 181.699 307.821C180.752 305.506 180.275 303.026 180.296 300.526C180.317 298.025 180.836 295.553 181.822 293.255C182.808 290.957 184.242 288.878 186.04 287.14L199.36 273.82L226 300.46Z" fill="white"/>
<path d="M226 300.46L239.32 287.14C242.854 283.607 244.84 278.815 244.841 273.819C244.842 268.822 242.858 264.029 239.325 260.495C237.576 258.745 235.499 257.357 233.213 256.41C230.928 255.462 228.478 254.975 226.004 254.974C221.007 254.973 216.214 256.957 212.68 260.49L199.36 273.82L226 300.46Z" fill="black"/>
<path d="M313.67 401.32C346.321 401.32 372.79 374.851 372.79 342.2C372.79 309.549 346.321 283.08 313.67 283.08C281.019 283.08 254.55 309.549 254.55 342.2C254.55 374.851 281.019 401.32 313.67 401.32Z" fill="#DAA900"/>
<path d="M347.9 330.79V353.61H325.08V376.43H302.27V353.61H279.45V330.79H302.27V307.98H325.08V330.79H347.9Z" fill="white"/>
</svg>
